X:1902
T:Farewell,The. HSJJ.146
O:england
M:6/8
L:1/8
S:HSJ Jackson,Wyresdale,Lancs.1823
R:Quadrille
A:Lancashire
H:1823
K:D
d2A FAF|D2A FAF|d2E F/G/AF|BGEE3|d2A FAF|D2A FAF|(B/c/dB) cec|dAFD3:|
|:ded faf|eceg2e|ded faf|ecAA3|ded faf|ece gfg|agf edc|dAFD3:|]


